X:1
T:South Island, 9.10.9.10.9.10
T:South Island, 9.10.9.10.9.10
T:Maude Werner, 1899
T:Public Domain Courtesy of the Cyber Hymnal™
C:Maude Werner, 1899
Z:Public Domain
Z:Courtesy of the Cyber Hymnal™
%%score ( 1 2 ) ( 3 4 )
L:1/8
Q:1/4=100
M:4/4
K:G
V:1 treble 
V:2 treble 
V:3 bass 
V:4 bass 
V:1
 [B,G]2 [B,D]>[DG] [DB]2 [B,G]2 | [Gd]2 [Ge]>[Gd] [Gd]4 | G2 [FA][=FB] [Ed][D^Fc] ([GB][EA]) | %3
 [DG]2 [DF]>[DF] [DG]4 | [Bd]2 [GB][Bd] ([ce][Bd]) ([Ac][GB]) | [Dc]2 [DB]>[GB] [FA]4 | %6
 [DB]2 [B,G][DB] [Ec][DB] ([CA][B,G]) | [CA]2 [EG]>[EG] [DF]4 | [B,G]2 [B,D]>[DG] [DB]2 [B,G]2 | %9
 [Gd]2 [Ge]>[Gd] [Gd]4 | G2 [FA][=FB] [Ed][^Fc] ([GB][EA]) | [DG]2 [DF]>[DF] [DG]4 |] %12
V:2
 x8 | x8 | G2 x6 | x8 | x8 | x8 | x8 | x8 | x8 | x8 | G2 x6 | x8 |] %12
V:3
 G,2 G,>G, G,2 G,2 | [G,B,]2 [G,C]>[G,B,] [G,B,]4 | [G,B,]2 [G,C][G,D] [C,C][A,,C] ([B,,D][C,C]) | %3
 [D,B,]2 [D,A,]>[D,A,] [G,,B,]4 | G,2 G,G, G,2 (F,G,) | F,2 G,>G, D,4 | G,4 G,,4 | C,2 ^C,>C, D,4 | %8
 G,2 G,>G, G,2 G,2 | [G,B,]2 [G,C]>[G,B,] [G,B,]4 | [G,B,]2 [G,C][G,D] [C,C][A,,C] ([A,,D][C,C]) | %11
 [D,B,]2 [D,A,]>[D,A,] [G,,B,]4 |] %12
V:4
 G,2 G,>G, G,2 G,2 | x8 | x8 | x8 | x8 | x8 | x8 | x8 | G,2 G,>G, G,2 G,2 | x8 | x8 | x8 |] %12

